img/svgicons/telephone.svg

<svg width="10" height="10" viewBox="0 0 10 10" fill="none" xmlns="http://www.w3.org/2000/svg">
<g clip-path="url(#clip0_414_71)">
<path d="M9.9799 7.74817C9.95162 7.66295 9.77167 7.5374 9.44017 7.37183C9.35037 7.31964 9.22241 7.24872 9.05684 7.15874C8.89112 7.06877 8.74069 6.98586 8.60584 6.91008C8.47072 6.83434 8.34412 6.76095 8.22584 6.69003C8.20693 6.67583 8.14775 6.63446 8.04833 6.56565C7.9488 6.49705 7.86487 6.44613 7.79609 6.41292C7.72745 6.37991 7.65994 6.36329 7.59365 6.36329C7.49897 6.36329 7.38071 6.4308 7.23872 6.56565C7.09673 6.70068 6.96648 6.84735 6.84817 7.0061C6.72984 7.16479 6.60434 7.31145 6.4719 7.4464C6.33926 7.58141 6.23028 7.64884 6.14516 7.64884C6.10242 7.64884 6.04914 7.63693 5.98528 7.61342C5.92145 7.58976 5.87289 7.56949 5.83956 7.55315C5.80652 7.53646 5.74983 7.50342 5.66929 7.45354C5.58859 7.40382 5.54371 7.37658 5.53426 7.37183C4.88562 7.0119 4.32933 6.59996 3.86527 6.1361C3.40136 5.67197 2.98937 5.11572 2.62954 4.46701C2.62482 4.45753 2.59753 4.41253 2.54785 4.33209C2.4981 4.25156 2.46494 4.19482 2.44837 4.16159C2.43181 4.12848 2.41168 4.07992 2.38805 4.01601C2.36442 3.95211 2.35255 3.89887 2.35255 3.85621C2.35255 3.77104 2.42004 3.66208 2.55499 3.5295C2.68992 3.39698 2.83673 3.27146 2.99529 3.15317C3.15397 3.03489 3.30064 2.90464 3.43562 2.76265C3.57054 2.62059 3.63801 2.50228 3.63801 2.4076C3.63801 2.34136 3.62144 2.27382 3.58833 2.20519C3.5552 2.1364 3.5043 2.05247 3.43562 1.95299C3.36691 1.85357 3.32549 1.79444 3.31126 1.77541C3.24032 1.65712 3.16701 1.53048 3.09116 1.39553C3.01532 1.2606 2.93253 1.1102 2.84253 0.944507C2.7526 0.778885 2.68163 0.650998 2.62949 0.561048C2.46387 0.229678 2.33842 0.0496769 2.25317 0.0213683C2.22001 0.00716422 2.17026 0 2.10404 0C1.97613 0 1.80927 0.023632 1.60332 0.0710451C1.3973 0.118384 1.23518 0.168036 1.1168 0.2202C0.880058 0.319579 0.629136 0.608386 0.363961 1.08652C0.122492 1.5315 0.00177002 1.97193 0.00177002 2.40747C0.00177002 2.53521 0.0100536 2.65949 0.0266209 2.78034C0.0431881 2.90106 0.0727903 3.0372 0.115452 3.18875C0.158039 3.34024 0.192393 3.45278 0.218363 3.52606C0.244358 3.5994 0.292891 3.73076 0.363936 3.92022C0.434882 4.10962 0.477544 4.22557 0.491748 4.26818C0.657445 4.73221 0.853938 5.14647 1.08118 5.51107C1.45506 6.11709 1.96529 6.74339 2.61156 7.38971C3.25786 8.03598 3.88403 8.54619 4.4901 8.92022C4.85465 9.14743 5.26906 9.3439 5.73302 9.50972C5.77565 9.52385 5.8916 9.56642 6.08093 9.63761C6.27033 9.7086 6.40175 9.75714 6.47508 9.78318C6.54844 9.80925 6.66101 9.84363 6.81238 9.88629C6.96407 9.92896 7.10009 9.95856 7.22081 9.97525C7.34161 9.99159 7.46591 10 7.59367 10C8.0292 10 8.46965 9.87923 8.9147 9.63778C9.39279 9.37271 9.68152 9.12174 9.78095 8.88482C9.83324 8.76656 9.88276 8.6044 9.9301 8.39838C9.97759 8.19245 10.0012 8.02561 10.0012 7.89773C10.0013 7.83123 9.99418 7.78161 9.9799 7.74817Z" fill="#337D5A"/>
</g>
<defs>
<clipPath id="clip0_414_71">
<rect width="10" height="10" fill="white"/>
</clipPath>
</defs>
</svg>

<svg width="10" height="10" fill="none" xmlns="http://www.w3.org/2000/svg"><g clip-path="url(#a)"><path d="M9.98 7.748c-.028-.085-.208-.21-.54-.376-.09-.052-.218-.123-.383-.213-.166-.09-.316-.173-.451-.249-.135-.076-.262-.149-.38-.22a9.405 9.405 0 0 0-.178-.124c-.1-.069-.183-.12-.252-.153a.465.465 0 0 0-.202-.05c-.095 0-.213.068-.355.203a3.459 3.459 0 0 0-.39.44 4.28 4.28 0 0 1-.377.44c-.133.135-.242.203-.327.203a.483.483 0 0 1-.16-.036 1.658 1.658 0 0 1-.145-.06 2.649 2.649 0 0 1-.17-.1 4.394 4.394 0 0 0-.136-.081 7.463 7.463 0 0 1-1.669-1.236A7.46 7.46 0 0 1 2.63 4.467a4.083 4.083 0 0 0-.082-.135 2.566 2.566 0 0 1-.1-.17 1.54 1.54 0 0 1-.06-.146.48.48 0 0 1-.035-.16c0-.085.067-.194.202-.326.135-.133.282-.259.44-.377.159-.118.306-.248.44-.39.136-.142.203-.26.203-.355a.464.464 0 0 0-.05-.203 1.973 1.973 0 0 0-.152-.252c-.07-.1-.11-.159-.125-.178-.07-.118-.144-.245-.22-.38a35.99 35.99 0 0 1-.248-.45A16.9 16.9 0 0 0 2.629.56C2.464.23 2.34.05 2.253.021A.398.398 0 0 0 2.104 0a2.34 2.34 0 0 0-.5.071 2.812 2.812 0 0 0-.487.15C.88.32.629.607.364 1.086c-.242.445-.362.885-.362 1.32a2.743 2.743 0 0 0 .113.782c.043.151.077.264.103.337l.146.394c.07.19.114.306.128.348.165.464.362.878.59 1.243.373.606.883 1.232 1.53 1.879.646.646 1.272 1.156 1.878 1.53.365.227.78.424 1.243.59.043.014.159.056.348.128.19.07.32.12.394.145.073.026.186.06.337.103.152.043.288.073.409.09.12.016.245.024.373.024.435 0 .876-.12 1.32-.362.479-.265.768-.516.867-.753.052-.118.102-.28.15-.487.047-.206.07-.372.07-.5a.397.397 0 0 0-.021-.15Z" fill="#337D5A"/></g><defs><clipPath id="a"><path fill="#fff" d="M0 0h10v10H0z"/></clipPath></defs></svg>
